X:1
T: Grolewen
C:Bruce Shawyer
R:Jig
Q:180
K:Em
M:6/8
L:1/16
B2|G2A2B2 E4B2|B2A2G2 G2F2E2|F2G2A2 D4A2|A2G2F2 F2E2D2|G2A2B2 E4B2|B2A2G2 G2F2E2|B2d2B2 A2G2F2|E6 E4B2|
G2A2B2 E4B2|B2A2G2 G2F2E2|F2G2A2 D4A2|A2G2F2 F2E2D2|G2A2B2 E4B2|B2A2G2 G2F2E2|B2d2B2 A2G2F2|E6 E4B2|
e4f2 g4a2|b2a2g2 g2f2e2|d4e2 f4g2|a2b2a2 a2f2d2|e4f2 g4a2|b2a2g2 g2f2e2|d2B2d2 a2g2f2|e6 e4B2|
e4f2 g4a2|b2a2g2 g2f2e2|d4e2 f4g2|a2b2a2 a2f2d2|e4f2 g4a2|b2a2g2 g2f2e2|d2B2d2 a2g2f2|e6 e4||
